front/assets/images/icone-croix.svg

<svg width="16" height="16" viewBox="0 0 16 16" fill="none" xmlns="http://www.w3.org/2000/svg">
    <path fill-rule="evenodd" clip-rule="evenodd" d="M7.99999 7.05733L11.3 3.75733L12.2427 4.7L8.94266 8L12.2427 11.3L11.3 12.2427L7.99999 8.94267L4.69999 12.2427L3.75732 11.3L7.05732 8L3.75732 4.7L4.69999 3.75733L7.99999 7.05733Z" fill="#000091"/>
</svg>

<svg xmlns="http://www.w3.org/2000/svg" width="16" height="16" fill="none"><path fill="#000091" fill-rule="evenodd" d="m8 7.057 3.3-3.3.943.943-3.3 3.3 3.3 3.3-.943.943-3.3-3.3-3.3 3.3-.943-.943 3.3-3.3-3.3-3.3.943-.943z" clip-rule="evenodd"/></svg>
